X:202 
T:Stoney Batter 
S:Grier MS
F:file ID: cre.4/202stoney
B:CRE4.065 (BÃÂÃÂÃÂÃÂ³thar na gCloch)
L:1/8
M:12/8
Q:160
R:jig
K:D
F2F FED F2A A2c|B2G A2F EFE E2G|
[1 "3"F2F FED F2A A2c|Bcd e2c d2B A2G:|
[2 "5"F2F FED F2A A2c|Bcd ecA d3 d2 ||
%
e|"7"f2d d2f ecA A2c|BdB A2F EFE E2g|
"9"f2d d2f ecA A2c|Bcd ecA d3 d2e|
"11"f2g agf ecA A2c|BdB A2F E3 A2G|
"13"F2F FED F2A A2c|Bcd e2c d3-d3 |]

%%%

